X: 24
T: He knows better.
%C: Mr. Gray
%R: reel
B: Mr. Gray "24 Country Dances for the Year 1805" p.12 #2
S: http://folkopedia.efdss.org/images/9/92/ThompsGray_24_1805.PDF  2013-12-2
Z: 2013 John Chambers <jc:trillian.mit.edu>
M: 2/4
L: 1/16
K: F
|:\
A3c AcFc | dcBA G2G2 |\
A3c (fe)(dc) | =BGAB c2c2 :|
|:\
cafc BgeB | AfcA (GE)C2 |\
FGAB cdef | BGFE F2F2 :|
% - - - - - - - - - - - - - - - - - - - - - - - - -
%%begintext align
%% Twice down the mid: up again, hands 4
%% round at bottom right & left at top.
%%endtext
